school/img/country/WS.svg

<svg width="13" height="12" viewBox="0 0 13 12" fill="none" xmlns="http://www.w3.org/2000/svg">
<rect width="13" height="12" rx="2" fill="white"/>
<mask id="mask0" mask-type="alpha" maskUnits="userSpaceOnUse" x="0" y="0" width="13" height="12">
<rect width="13" height="12" rx="2" fill="white"/>
</mask>
<g mask="url(#mask0)">
<rect width="13" height="12" fill="#E31F37"/>
<path fill-rule="evenodd" clip-rule="evenodd" d="M-0.619019 6.4H6.80955V-0.799999H-0.619019V6.4Z" fill="#083B9A"/>
<path fill-rule="evenodd" clip-rule="evenodd" d="M3.09528 1.6L2.65755 1.76569L2.78576 1.2L2.65755 0.634315L3.09528 0.800002L3.53302 0.634315L3.40481 1.2L3.53302 1.76569L3.09528 1.6ZM3.09528 5.6L2.65755 5.76569L2.78576 5.2L2.65755 4.63431L3.09528 4.8L3.53302 4.63431L3.40481 5.2L3.53302 5.76569L3.09528 5.6ZM1.41943 3.76569L1.85717 3.6L2.2949 3.76569L2.16669 3.2L2.2949 2.63432L1.85717 2.8L1.41943 2.63432L1.54764 3.2L1.41943 3.76569ZM4.64288 3.2L4.20515 3.36569L4.33336 2.8L4.20515 2.23432L4.64288 2.4L5.08061 2.23432L4.95241 2.8L5.08061 3.36569L4.64288 3.2ZM4.02388 4.2C4.02388 4.31046 3.95459 4.4 3.86911 4.4C3.78364 4.4 3.71435 4.31046 3.71435 4.2C3.71435 4.08954 3.78364 4 3.86911 4C3.95459 4 4.02388 4.08954 4.02388 4.2Z" fill="white"/>
</g>
</svg>

<svg width="13" height="12" fill="none" xmlns="http://www.w3.org/2000/svg"><rect width="13" height="12" rx="2" fill="#fff"/><mask id="a" maskUnits="userSpaceOnUse" x="0" y="0" width="13" height="12"><rect width="13" height="12" rx="2" fill="#fff"/></mask><g mask="url(#a)"><path fill="#E31F37" d="M0 0h13v12H0z"/><path fill-rule="evenodd" clip-rule="evenodd" d="M-.619 6.4H6.81V-.8H-.62v7.2z" fill="#083B9A"/><path fill-rule="evenodd" clip-rule="evenodd" d="M3.095 1.6l-.437.166.128-.566-.128-.566.437.166.438-.166-.128.566.128.566-.438-.166zm0 4l-.437.166.128-.566-.128-.566.437.166.438-.166-.128.566.128.566-.438-.166zM1.42 3.766l.438-.166.438.166-.128-.566.128-.566-.438.166-.438-.166.129.566-.129.566zM4.643 3.2l-.438.166.128-.566-.128-.566.438.166.438-.166-.129.566.129.566-.438-.166zm-.62 1c0 .11-.068.2-.154.2-.085 0-.155-.09-.155-.2 0-.11.07-.2.155-.2.086 0 .155.09.155.2z" fill="#fff"/></g></svg>
